data/reddit-sans-condensed.svg

<svg width="131.6" height="18.184" viewBox="0 0 131.6 18.184" xmlns="http://www.w3.org/2000/svg"><path transform="translate(0 14.137) scale(.0068359 -.0068359)" d="m274 600v156h252q116 0 185 80.5t69 207.5q0 123-72 196.5t-192 73.5h-242v160h270q123 0 216-52t144.5-145.5 51.5-218.5q0-133-55.5-236.5t-156-162.5-234.5-59zm-118-600v1474h176v-1474zm684 0-340 628 132 106 404-734z"/><path transform="translate(7.6836 14.137) scale(.0068359 -.0068359)" d="m522-16q-132 0-230.5 70t-153 197-54.5 299q0 162 49.5 285t141.5 192 219 69q119 0 207.5-62t137.5-174 49-262q0-36-2.5-67.5t-5.5-58.5h-668v140h512q0 147-61 237.5t-169 90.5q-79 0-134-50t-83.5-139-28.5-207q0-123 33-213.5t95-140.5 148-50q56 0 120 24t116 70l62-152q-63-46-142.5-72t-157.5-26z"/><path transform="translate(14.328 14.137) scale(.0068359 -.0068359)" d="m950-16q-55 30-89 61t-50.5 67.5-18.5 83.5l30-28h-78l44 122v532l-42 118h20v600h168v-1278q0-51 21-77t61-49zm-464 0q-189 0-295.5 149.5t-106.5 408.5q0 258 107 406t297 148q183 0 281.5-148t98.5-406q0-261-99.5-409.5t-282.5-148.5zm34 156q125 0 193.5 106.5t68.5 295.5q0 186-68.5 292t-193.5 106q-123 0-195.5-106t-72.5-292 72-294 196-108z"/><path transform="translate(21.793 14.137) scale(.0068359 -.0068359)" d="m950-16q-55 30-89 61t-50.5 67.5-18.5 83.5l30-28h-78l44 122v532l-42 118h20v600h168v-1278q0-51 21-77t61-49zm-464 0q-189 0-295.5 149.5t-106.5 408.5q0 258 107 406t297 148q183 0 281.5-148t98.5-406q0-261-99.5-409.5t-282.5-148.5zm34 156q125 0 193.5 106.5t68.5 295.5q0 186-68.5 292t-193.5 106q-123 0-195.5-106t-72.5-292 72-294 196-108z"/><path transform="translate(29.258 14.137) scale(.0068359 -.0068359)" d="m136 0v1080h168v-1080zm84 1230q-55 0-92.5 37.5t-37.5 92.5 37.5 92.5 92.5 37.5 92.5-37.5 37.5-92.5-37.5-92.5-92.5-37.5z"/><path transform="translate(32.266 14.137) scale(.0068359 -.0068359)" d="m496-16q-135 0-206.5 87t-71.5 225v1106h168v-1090q0-81 34.5-126.5t85.5-45.5q18 0 37 7t35 17l62-148q-25-10-61-21t-83-11zm-444 940v156h562v-156z"/><path transform="translate(40.059 14.137) scale(.0068359 -.0068359)" d="m504-16q-85 0-165 29t-147 77-112 104l76 180q39-58 93.5-109.5t117.5-84 129-32.5q65 0 119.5 33t87.5 91 33 132q0 71-32.5 122.5t-93.5 90-146 71.5q-109 43-188.5 104t-122.5 141.5-43 182.5q0 110 48.5 194.5t134 132 195.5 47.5q108 0 208.5-48t167.5-128l-68-164q-41 53-91 92.5t-104.5 61.5-108.5 22q-93 0-149.5-62t-56.5-152q0-106 71.5-170.5t192.5-111.5q96-37 178.5-91t133-135.5 50.5-201.5q0-125-55.5-219t-148-146.5-204.5-52.5z"/><path transform="translate(46.895 14.137) scale(.0068359 -.0068359)" d="m394-16q-90 0-160 42t-110 115-40 165q0 158 111.5 246t294.5 88h190v-136h-184q-118 0-185-51t-67-141q0-82 49-133t127-51q63 0 116 33.5t84.5 92 31.5 134.5v122l-4 58v190q0 84-56 133t-140 49q-66 0-138-27.5t-120-72.5l-64 148q68 51 161 79.5t175 28.5q153 0 247.5-87.5t94.5-234.5v-504q0-51 16-80t46-46l18-10-64-150-24 12q-60 30-94.5 81t-37.5 93l30-32h-60l52 38q-40-87-117-139.5t-179-52.5z"/><path transform="translate(53.457 14.137) scale(.0068359 -.0068359)" d="m128 0v1080h168v-120h38l-68-68q32 98 116 151t186 53q141 0 226.5-99.5t85.5-260.5v-736h-168v716q0 102-54.5 165t-143.5 63q-64 0-113-29t-77-80.5-28-120.5v-714z"/><path transform="translate(60.32 14.137) scale(.0068359 -.0068359)" d="m416-16q-93 0-188.5 43.5t-163.5 118.5l68 152q60-75 135-118.5t141-43.5q71 0 117.5 46.5t46.5 113.5q0 69-50 116.5t-154 81.5q-78 26-139.5 72t-97 109-35.5 141q0 84 41 147t110.5 98 156.5 35q83 0 163-32t131-88l-62-148q-45 54-106.5 85t-121.5 31q-64 0-106-38t-42-98q0-64 49.5-109.5t152.5-80.5q78-26 140-69.5t98-106.5 36-148q0-90-42-160t-114.5-110-163.5-40z"/><path transform="translate(68.934 14.137) scale(.0068359 -.0068359)" d="m708-16q-189 0-329 93t-217.5 262.5-77.5 398.5q0 228 78 397t220 262 334 93q104 0 213-37t181-97l-68-164q-54 62-139.5 100t-172.5 38q-143 0-248.5-73.5t-163.5-206.5-58-312 56.5-312.5 160-207.5 243.5-74q93 0 180 44.5t142 113.5l70-166q-78-70-187.5-111t-216.5-41z"/><path transform="translate(77.014 14.137) scale(.0068359 -.0068359)" d="m518-16q-132 0-229.5 70t-151 196.5-53.5 295.5q0 166 53.5 289.5t151 192 229.5 68.5q131 0 228-68.5t150.5-192 53.5-289.5q0-170-53.5-296.5t-150.5-196-228-69.5zm0 156q120 0 192 110t72 296q0 179-72 286.5t-192 107.5q-121 0-193.5-107.5t-72.5-286.5q0-184 72.5-295t193.5-111z"/><path transform="translate(84.082 14.137) scale(.0068359 -.0068359)" d="m128 0v1080h168v-120h38l-68-68q32 98 116 151t186 53q141 0 226.5-99.5t85.5-260.5v-736h-168v716q0 102-54.5 165t-143.5 63q-64 0-113-29t-77-80.5-28-120.5v-714z"/><path transform="translate(90.945 14.137) scale(.0068359 -.0068359)" d="m950-16q-55 30-89 61t-50.5 67.5-18.5 83.5l30-28h-78l44 122v532l-42 118h20v600h168v-1278q0-51 21-77t61-49zm-464 0q-189 0-295.5 149.5t-106.5 408.5q0 258 107 406t297 148q183 0 281.5-148t98.5-406q0-261-99.5-409.5t-282.5-148.5zm34 156q125 0 193.5 106.5t68.5 295.5q0 186-68.5 292t-193.5 106q-123 0-195.5-106t-72.5-292 72-294 196-108z"/><path transform="translate(98.41 14.137) scale(.0068359 -.0068359)" d="m522-16q-132 0-230.5 70t-153 197-54.5 299q0 162 49.5 285t141.5 192 219 69q119 0 207.5-62t137.5-174 49-262q0-36-2.5-67.5t-5.5-58.5h-668v140h512q0 147-61 237.5t-169 90.5q-79 0-134-50t-83.5-139-28.5-207q0-123 33-213.5t95-140.5 148-50q56 0 120 24t116 70l62-152q-63-46-142.5-72t-157.5-26z"/><path transform="translate(105.05 14.137) scale(.0068359 -.0068359)" d="m128 0v1080h168v-120h38l-68-68q32 98 116 151t186 53q141 0 226.5-99.5t85.5-260.5v-736h-168v716q0 102-54.5 165t-143.5 63q-64 0-113-29t-77-80.5-28-120.5v-714z"/><path transform="translate(111.92 14.137) scale(.0068359 -.0068359)" d="m416-16q-93 0-188.5 43.5t-163.5 118.5l68 152q60-75 135-118.5t141-43.5q71 0 117.5 46.5t46.5 113.5q0 69-50 116.5t-154 81.5q-78 26-139.5 72t-97 109-35.5 141q0 84 41 147t110.5 98 156.5 35q83 0 163-32t131-88l-62-148q-45 54-106.5 85t-121.5 31q-64 0-106-38t-42-98q0-64 49.5-109.5t152.5-80.5q78-26 140-69.5t98-106.5 36-148q0-90-42-160t-114.5-110-163.5-40z"/><path transform="translate(117.5 14.137) scale(.0068359 -.0068359)" d="m522-16q-132 0-230.5 70t-153 197-54.5 299q0 162 49.5 285t141.5 192 219 69q119 0 207.5-62t137.5-174 49-262q0-36-2.5-67.5t-5.5-58.5h-668v140h512q0 147-61 237.5t-169 90.5q-79 0-134-50t-83.5-139-28.5-207q0-123 33-213.5t95-140.5 148-50q56 0 120 24t116 70l62-152q-63-46-142.5-72t-157.5-26z"/><path transform="translate(124.14 14.137) scale(.0068359 -.0068359)" d="m950-16q-55 30-89 61t-50.5 67.5-18.5 83.5l30-28h-78l44 122v532l-42 118h20v600h168v-1278q0-51 21-77t61-49zm-464 0q-189 0-295.5 149.5t-106.5 408.5q0 258 107 406t297 148q183 0 281.5-148t98.5-406q0-261-99.5-409.5t-282.5-148.5zm34 156q125 0 193.5 106.5t68.5 295.5q0 186-68.5 292t-193.5 106q-123 0-195.5-106t-72.5-292 72-294 196-108z"/></svg>

<?xml version="1.0" encoding="utf-8" ?>
<svg baseProfile="tiny" height="100%" version="1.2" width="100%" xmlns="http://www.w3.org/2000/svg" xmlns:ev="http://www.w3.org/2001/xml-events" xmlns:xlink="http://www.w3.org/1999/xlink"><defs /><g><path d="M274 600V756H526Q642 756 711.0 836.5Q780 917 780 1044Q780 1167 708.0 1240.5Q636 1314 516 1314H274V1474H544Q667 1474 760.0 1422.0Q853 1370 904.5 1276.5Q956 1183 956 1058Q956 925 900.5 821.5Q845 718 744.5 659.0Q644 600 510 600ZM156 0V1474H332V0ZM840 0 500 628 632 734 1036 0Z" transform="translate(0.0, 72) scale(0.03515625, -0.03515625)" /><path d="M522 -16Q390 -16 291.5 54.0Q193 124 138.5 251.0Q84 378 84 550Q84 712 133.5 835.0Q183 958 275.0 1027.0Q367 1096 494 1096Q613 1096 701.5 1034.0Q790 972 839.0 860.0Q888 748 888 598Q888 562 885.5 530.5Q883 499 880 472H212V612H724Q724 759 663.0 849.5Q602 940 494 940Q415 940 360.0 890.0Q305 840 276.5 751.0Q248 662 248 544Q248 421 281.0 330.5Q314 240 376.0 190.0Q438 140 524 140Q580 140 644.0 164.0Q708 188 760 234L822 82Q759 36 679.5 10.0Q600 -16 522 -16Z" transform="translate(39.515625, 72) scale(0.03515625, -0.03515625)" /><path d="M950 -16Q895 14 861.0 45.0Q827 76 810.5 112.5Q794 149 792 196L822 168H744L788 290V822L746 940H766V1540H934V262Q934 211 955.0 185.0Q976 159 1016 136ZM486 -16Q297 -16 190.5 133.5Q84 283 84 542Q84 800 191.0 948.0Q298 1096 488 1096Q671 1096 769.5 948.0Q868 800 868 542Q868 281 768.5 132.5Q669 -16 486 -16ZM520 140Q645 140 713.5 246.5Q782 353 782 542Q782 728 713.5 834.0Q645 940 520 940Q397 940 324.5 834.0Q252 728 252 542Q252 356 324.0 248.0Q396 140 520 140Z" transform="translate(73.6875, 72) scale(0.03515625, -0.03515625)" /><path d="M950 -16Q895 14 861.0 45.0Q827 76 810.5 112.5Q794 149 792 196L822 168H744L788 290V822L746 940H766V1540H934V262Q934 211 955.0 185.0Q976 159 1016 136ZM486 -16Q297 -16 190.5 133.5Q84 283 84 542Q84 800 191.0 948.0Q298 1096 488 1096Q671 1096 769.5 948.0Q868 800 868 542Q868 281 768.5 132.5Q669 -16 486 -16ZM520 140Q645 140 713.5 246.5Q782 353 782 542Q782 728 713.5 834.0Q645 940 520 940Q397 940 324.5 834.0Q252 728 252 542Q252 356 324.0 248.0Q396 140 520 140Z" transform="translate(112.078125, 72) scale(0.03515625, -0.03515625)" /><path d="M136 0V1080H304V0ZM220 1230Q165 1230 127.5 1267.5Q90 1305 90 1360Q90 1415 127.5 1452.5Q165 1490 220 1490Q275 1490 312.5 1452.5Q350 1415 350 1360Q350 1305 312.5 1267.5Q275 1230 220 1230Z" transform="translate(150.46875, 72) scale(0.03515625, -0.03515625)" /><path d="M496 -16Q361 -16 289.5 71.0Q218 158 218 296V1402H386V312Q386 231 420.5 185.5Q455 140 506 140Q524 140 543.0 147.0Q562 154 578 164L640 16Q615 6 579.0 -5.0Q543 -16 496 -16ZM52 924V1080H614V924Z" transform="translate(165.9375, 72) scale(0.03515625, -0.03515625)" /><path d="M504 -16Q419 -16 339.0 13.0Q259 42 192.0 90.0Q125 138 80 194L156 374Q195 316 249.5 264.5Q304 213 367.0 180.5Q430 148 496 148Q561 148 615.5 181.0Q670 214 703.0 272.0Q736 330 736 404Q736 475 703.5 526.5Q671 578 610.0 616.5Q549 655 464 688Q355 731 275.5 792.0Q196 853 153.0 933.5Q110 1014 110 1116Q110 1226 158.5 1310.5Q207 1395 292.5 1442.5Q378 1490 488 1490Q596 1490 696.5 1442.0Q797 1394 864 1314L796 1150Q755 1203 705.0 1242.5Q655 1282 600.5 1304.0Q546 1326 492 1326Q399 1326 342.5 1264.0Q286 1202 286 1112Q286 1006 357.5 941.5Q429 877 550 830Q646 793 728.5 739.0Q811 685 861.5 603.5Q912 522 912 402Q912 277 856.5 183.0Q801 89 708.5 36.5Q616 -16 504 -16Z" transform="translate(206.015625, 72) scale(0.03515625, -0.03515625)" /><path d="M394 -16Q304 -16 234.0 26.0Q164 68 124.0 141.0Q84 214 84 306Q84 464 195.5 552.0Q307 640 490 640H680V504H496Q378 504 311.0 453.0Q244 402 244 312Q244 230 293.0 179.0Q342 128 420 128Q483 128 536.0 161.5Q589 195 620.5 253.5Q652 312 652 388V510L648 568V758Q648 842 592.0 891.0Q536 940 452 940Q386 940 314.0 912.5Q242 885 194 840L130 988Q198 1039 291.0 1067.5Q384 1096 466 1096Q619 1096 713.5 1008.5Q808 921 808 774V270Q808 219 824.0 190.0Q840 161 870 144L888 134L824 -16L800 -4Q740 26 705.5 77.0Q671 128 668 170L698 138H638L690 176Q650 89 573.0 36.5Q496 -16 394 -16Z" transform="translate(241.171875, 72) scale(0.03515625, -0.03515625)" /><path d="M128 0V1080H296V960H334L266 892Q298 990 382.0 1043.0Q466 1096 568 1096Q709 1096 794.5 996.5Q880 897 880 736V0H712V716Q712 818 657.5 881.0Q603 944 514 944Q450 944 401.0 915.0Q352 886 324.0 834.5Q296 783 296 714V0Z" transform="translate(274.921875, 72) scale(0.03515625, -0.03515625)" /><path d="M416 -16Q323 -16 227.5 27.5Q132 71 64 146L132 298Q192 223 267.0 179.5Q342 136 408 136Q479 136 525.5 182.5Q572 229 572 296Q572 365 522.0 412.5Q472 460 368 494Q290 520 228.5 566.0Q167 612 131.5 675.0Q96 738 96 816Q96 900 137.0 963.0Q178 1026 247.5 1061.0Q317 1096 404 1096Q487 1096 567.0 1064.0Q647 1032 698 976L636 828Q591 882 529.5 913.0Q468 944 408 944Q344 944 302.0 906.0Q260 868 260 808Q260 744 309.5 698.5Q359 653 462 618Q540 592 602.0 548.5Q664 505 700.0 442.0Q736 379 736 294Q736 204 694.0 134.0Q652 64 579.5 24.0Q507 -16 416 -16Z" transform="translate(310.21875, 72) scale(0.03515625, -0.03515625)" /><path d="M708 -16Q519 -16 379.0 77.0Q239 170 161.5 339.5Q84 509 84 738Q84 966 162.0 1135.0Q240 1304 382.0 1397.0Q524 1490 716 1490Q820 1490 929.0 1453.0Q1038 1416 1110 1356L1042 1192Q988 1254 902.5 1292.0Q817 1330 730 1330Q587 1330 481.5 1256.5Q376 1183 318.0 1050.0Q260 917 260 738Q260 559 316.5 425.5Q373 292 476.5 218.0Q580 144 720 144Q813 144 900.0 188.5Q987 233 1042 302L1112 136Q1034 66 924.5 25.0Q815 -16 708 -16Z" transform="translate(354.515625, 72) scale(0.03515625, -0.03515625)" /><path d="M518 -16Q386 -16 288.5 54.0Q191 124 137.5 250.5Q84 377 84 546Q84 712 137.5 835.5Q191 959 288.5 1027.5Q386 1096 518 1096Q649 1096 746.0 1027.5Q843 959 896.5 835.5Q950 712 950 546Q950 376 896.5 249.5Q843 123 746.0 53.5Q649 -16 518 -16ZM518 140Q638 140 710.0 250.0Q782 360 782 546Q782 725 710.0 832.5Q638 940 518 940Q397 940 324.5 832.5Q252 725 252 546Q252 362 324.5 251.0Q397 140 518 140Z" transform="translate(396.0703125, 72) scale(0.03515625, -0.03515625)" /><path d="M128 0V1080H296V960H334L266 892Q298 990 382.0 1043.0Q466 1096 568 1096Q709 1096 794.5 996.5Q880 897 880 736V0H712V716Q712 818 657.5 881.0Q603 944 514 944Q450 944 401.0 915.0Q352 886 324.0 834.5Q296 783 296 714V0Z" transform="translate(432.421875, 72) scale(0.03515625, -0.03515625)" /><path d="M950 -16Q895 14 861.0 45.0Q827 76 810.5 112.5Q794 149 792 196L822 168H744L788 290V822L746 940H766V1540H934V262Q934 211 955.0 185.0Q976 159 1016 136ZM486 -16Q297 -16 190.5 133.5Q84 283 84 542Q84 800 191.0 948.0Q298 1096 488 1096Q671 1096 769.5 948.0Q868 800 868 542Q868 281 768.5 132.5Q669 -16 486 -16ZM520 140Q645 140 713.5 246.5Q782 353 782 542Q782 728 713.5 834.0Q645 940 520 940Q397 940 324.5 834.0Q252 728 252 542Q252 356 324.0 248.0Q396 140 520 140Z" transform="translate(467.71875, 72) scale(0.03515625, -0.03515625)" /><path d="M522 -16Q390 -16 291.5 54.0Q193 124 138.5 251.0Q84 378 84 550Q84 712 133.5 835.0Q183 958 275.0 1027.0Q367 1096 494 1096Q613 1096 701.5 1034.0Q790 972 839.0 860.0Q888 748 888 598Q888 562 885.5 530.5Q883 499 880 472H212V612H724Q724 759 663.0 849.5Q602 940 494 940Q415 940 360.0 890.0Q305 840 276.5 751.0Q248 662 248 544Q248 421 281.0 330.5Q314 240 376.0 190.0Q438 140 524 140Q580 140 644.0 164.0Q708 188 760 234L822 82Q759 36 679.5 10.0Q600 -16 522 -16Z" transform="translate(506.109375, 72) scale(0.03515625, -0.03515625)" /><path d="M128 0V1080H296V960H334L266 892Q298 990 382.0 1043.0Q466 1096 568 1096Q709 1096 794.5 996.5Q880 897 880 736V0H712V716Q712 818 657.5 881.0Q603 944 514 944Q450 944 401.0 915.0Q352 886 324.0 834.5Q296 783 296 714V0Z" transform="translate(540.28125, 72) scale(0.03515625, -0.03515625)" /><path d="M416 -16Q323 -16 227.5 27.5Q132 71 64 146L132 298Q192 223 267.0 179.5Q342 136 408 136Q479 136 525.5 182.5Q572 229 572 296Q572 365 522.0 412.5Q472 460 368 494Q290 520 228.5 566.0Q167 612 131.5 675.0Q96 738 96 816Q96 900 137.0 963.0Q178 1026 247.5 1061.0Q317 1096 404 1096Q487 1096 567.0 1064.0Q647 1032 698 976L636 828Q591 882 529.5 913.0Q468 944 408 944Q344 944 302.0 906.0Q260 868 260 808Q260 744 309.5 698.5Q359 653 462 618Q540 592 602.0 548.5Q664 505 700.0 442.0Q736 379 736 294Q736 204 694.0 134.0Q652 64 579.5 24.0Q507 -16 416 -16Z" transform="translate(575.578125, 72) scale(0.03515625, -0.03515625)" /><path d="M522 -16Q390 -16 291.5 54.0Q193 124 138.5 251.0Q84 378 84 550Q84 712 133.5 835.0Q183 958 275.0 1027.0Q367 1096 494 1096Q613 1096 701.5 1034.0Q790 972 839.0 860.0Q888 748 888 598Q888 562 885.5 530.5Q883 499 880 472H212V612H724Q724 759 663.0 849.5Q602 940 494 940Q415 940 360.0 890.0Q305 840 276.5 751.0Q248 662 248 544Q248 421 281.0 330.5Q314 240 376.0 190.0Q438 140 524 140Q580 140 644.0 164.0Q708 188 760 234L822 82Q759 36 679.5 10.0Q600 -16 522 -16Z" transform="translate(604.265625, 72) scale(0.03515625, -0.03515625)" /><path d="M950 -16Q895 14 861.0 45.0Q827 76 810.5 112.5Q794 149 792 196L822 168H744L788 290V822L746 940H766V1540H934V262Q934 211 955.0 185.0Q976 159 1016 136ZM486 -16Q297 -16 190.5 133.5Q84 283 84 542Q84 800 191.0 948.0Q298 1096 488 1096Q671 1096 769.5 948.0Q868 800 868 542Q868 281 768.5 132.5Q669 -16 486 -16ZM520 140Q645 140 713.5 246.5Q782 353 782 542Q782 728 713.5 834.0Q645 940 520 940Q397 940 324.5 834.0Q252 728 252 542Q252 356 324.0 248.0Q396 140 520 140Z" transform="translate(638.4375, 72) scale(0.03515625, -0.03515625)" /></g></svg>
